X: 1
T: Woodridge Breakdown
C: Andy de Jarlis
R: reel
S: printed page of unknown origin, RJ rehearsal 201806011
Z: 2018 John Chambers <jc:trillian.mit.edu>
B: Portland Collection V.3 p.224
M: 2/4
L: 1/16
K: A
|:\
"A"EGAB cAA2 | efed c2A2 | "G"EF=GA BGG2 | Bdde dBcA ||\
"A"EGAB cAA2 |
               efed c2ef | "G"=gefd efed | "A"c2"E7"BG "A"A4 ::\
"A"ea2a abaf | ea2a abaf |
                          "Em"edef =g2gf | "G"=gedB =GABd ||\
"A"e2a2 abaf | ea2a a2ef | "G"=gefd efed | "A"c2"E7"BG "A"A4 :|
